svg/fluentui-system-icons/ic_fluent_double_tap_swipe_down_24_filled.svg

<svg width="24" height="24" viewBox="0 0 24 24" fill="none" xmlns="http://www.w3.org/2000/svg">
<path d="M12.7071 21.707C12.3166 22.0975 11.6834 22.0975 11.2929 21.707L8.29289 18.707C7.90237 18.3165 7.90237 17.6833 8.29289 17.2928C8.68342 16.9023 9.31658 16.9023 9.70711 17.2928L11 18.5857V8.99992C11 8.44763 11.4477 7.99992 12 7.99992C12.5523 7.99992 13 8.44763 13 8.99992V18.5857L14.2929 17.2928C14.6834 16.9023 15.3166 16.9023 15.7071 17.2928C16.0976 17.6833 16.0976 18.3165 15.7071 18.707L12.7071 21.707ZM4.5 9C4.5 12.4495 6.82881 15.3551 10 16.2304V14.1251C7.95132 13.325 6.5 11.332 6.5 9C6.5 5.96243 8.96243 3.5 12 3.5C15.0376 3.5 17.5 5.96243 17.5 9C17.5 11.332 16.0487 13.325 14 14.1251V16.2304C17.1712 15.3551 19.5 12.4495 19.5 9C19.5 4.85786 16.1421 1.5 12 1.5C7.85786 1.5 4.5 4.85786 4.5 9ZM7.5 9C7.5 10.7669 8.51828 12.2959 10 13.0322V10.5002C9.68604 10.0824 9.5 9.56291 9.5 9C9.5 7.61929 10.6193 6.5 12 6.5C13.3807 6.5 14.5 7.61929 14.5 9C14.5 9.56291 14.314 10.0824 14 10.5002V13.0322C15.4817 12.2959 16.5 10.7669 16.5 9C16.5 6.51472 14.4853 4.5 12 4.5C9.51472 4.5 7.5 6.51472 7.5 9Z" fill="#212121"/>
</svg>

<svg xmlns="http://www.w3.org/2000/svg" width="24" height="24"><path d="M12.707 21.707a1 1 0 0 1-1.414 0l-3-3a1 1 0 1 1 1.414-1.414L11 18.586V9a1 1 0 1 1 2 0v9.586l1.293-1.293a1 1 0 0 1 1.414 1.414l-3 3ZM4.5 9a7.503 7.503 0 0 0 5.5 7.23v-2.105A5.502 5.502 0 0 1 12 3.5a5.5 5.5 0 0 1 2 10.625v2.105A7.5 7.5 0 1 0 4.5 9Zm3 0a4.5 4.5 0 0 0 2.5 4.032V10.5a2.5 2.5 0 1 1 4 0v2.532A4.5 4.5 0 1 0 7.5 9Z"/></svg>
